!!!Melodie: eigene
!!!Typ: Lied
**kern	**silbe	**silbe	**silbe	**silbe	**silbe	**silbe
*clefG2	*lang:DE	*lang:DE	*lang:DE	*lang:DE	*lang:DE	*lang:DE
*k[b-]	*	*	*	*	*	*
*M2/2	*	*	*	*	*	*
2d	Von	Noch	Und	Doch	Lass	Wenn
4d	gu#	will	reichst	willst	warm	sich
4e	#ten	das	du	du	und	die
=	=	=	=	=	=	=
2f	Mäch#	al#	uns	uns	hell	Stel#
2f	#ten	#te	den	noch	die	#le
=	=	=	=	=	=	=
4g	treu	uns#	schwe#	ein#	Ker#	nun
4f	und	#'re	#ren	#mal	#zen	tief
4e	still	Her#	Kelch,	Freu#	heu#	um
4d	um#	#zen	den	#de	#te	uns
=	=	=	=	=	=	=
*M3/2	*	*	*	*	*	*
2e	#ge#	quä#	bitt#	schen#	flam#	brei#
2e	#ben,	#len,	#er'n	#ken	#men,	#tet,
2f	be#	noch	des	an	die	so
=	=	=	=	=	=	=
*M2/2	*	*	*	*	*	*
4d	#hü#	drückt	Leids,	die#	du	lass
4e	#tet	uns	ge#	#ser	in	uns
4f	und	bö#	#füllt	Welt	uns#	hö#
4g	ge#	#ser	bis	und	#'re	#ren
=	=	=	=	=	=	=
2a	#trös#	Ta#	an	ih#	Dun#	je#
2b-	#tet	#ge	den	#rer	#kel#	#nen
=	=	=	=	=	=	=
*M3/2	*	*	*	*	*	*
4g	wun#	schwe#	höch#	Son#	#heit	vol#
4g	#der#	#re	#sten	#ne	ge#	#len
2f	#bar,	Last.	Rand,	Glanz,	#bracht,	Klang
2r	%	%	%	%	%	%
=	=	=	=	=	=	=
*M2/2	*	*	*	*	*	*
2cc	so	Ach	so	dann	führ,	der
4cc	will	Herr,	neh#	woll’n	wenn	Welt,
4cc	ich	gib	#men	wir	es	die
=	=	=	=	=	=	=
2a	die#	un#	wir	des	sein	un#
2dd	#se	#ser'n	ihn	Ver#	kann,	#sicht#
=	=	=	=	=	=	=
4cc	Ta#	auf#	dank#	#gan#	wie#	#bar
4b-	#ge	#ge#	#bar	#ge#	#der	sich
4a	mit	#schreck#	oh#	#nen	uns	um
4g	euch	#ten	#ne	ge#	zu#	uns
=	=	=	=	=	=	=
*M3/2	*	*	*	*	*	*
2f	le#	See#	Zit#	#den#	#sam#	wei#
2g	#ben	#len	#tern	#ken,	#men.	#tet,
2a	und	das	aus	und	Wir	all’
=	=	=	=	=	=	=
4d	mit	Heil,	dei#	dann	wis#	dei#
4d	euch	für	#ner	ge#	#sen	#ner
2g	ge#	das	gu#	#hört	es,	Kin#
2g	#hen	du	#ten	dir	dein	#der
=	=	=	=	=	=	=
4f	in	uns	und	un#	Licht	ho#
4d	ein	ge#	ge#	#ser	scheint	#hen
2e	neu#	#schaff#	#lieb#	Le#	in	Lob#
2e	#es	#en	#ten	#ben	der	#ge#
=	=	=	=	=	=	=
*M2/2	*	*	*	*	*	*
1d	Jahr.	hast.	Hand.	ganz.	Nacht.	#sang.
==	==	==	==	==	==	==
*-	*-	*-	*-	*-	*-	*-
